icon/ir/error-window.svg

<svg viewBox="0 0 24 24" stroke-width="1.5" fill="none" xmlns="http://www.w3.org/2000/svg" height="1em" width="1em">
  <path d="M15 21H4C2.89543 21 2 20.1046 2 19V5C2 3.89543 2.89543 3 4 3H20C21.1046 3 22 3.89543 22 5V15" stroke="currentColor" stroke-linecap="round"/>
  <path d="M2 7L22 7" stroke="currentColor" stroke-linecap="round" stroke-linejoin="round"/>
  <path d="M5 5.01L5.01 4.99889" stroke="currentColor" stroke-linecap="round" stroke-linejoin="round"/>
  <path d="M8 5.01L8.01 4.99889" stroke="currentColor" stroke-linecap="round" stroke-linejoin="round"/>
  <path d="M11 5.01L11.01 4.99889" stroke="currentColor" stroke-linecap="round" stroke-linejoin="round"/>
  <path d="M18 22.2426L20.1213 20.1213M20.1213 20.1213L22.2426 18M20.1213 20.1213L18 18M20.1213 20.1213L22.2426 22.2426" stroke="currentColor" stroke-linecap="round" stroke-linejoin="round"/>
</svg>

<svg width="24" height="24" stroke-width="1.5" fill="none" xmlns="http://www.w3.org/2000/svg"><path d="M15 21H4a2 2 0 0 1-2-2V5a2 2 0 0 1 2-2h16a2 2 0 0 1 2 2v10" stroke="currentColor" stroke-linecap="round"/><path d="M2 7h20M5 5.01l.01-.011M8 5.01l.01-.011M11 5.01l.01-.011M18 22.243l2.121-2.122m0 0L22.243 18m-2.122 2.121L18 18m2.121 2.121 2.122 2.122" stroke="currentColor" stroke-linecap="round" stroke-linejoin="round"/></svg>
